src/assets/mastercard-icon.svg

<svg width="97" height="63" viewBox="0 0 97 63" fill="none" xmlns="http://www.w3.org/2000/svg">
<circle cx="36" cy="20" r="20" fill="#EB001B" fill-opacity="0.75"/>
<circle cx="63" cy="20" r="20" fill="#F79E1B" fill-opacity="0.75"/>
<path d="M1.152 47.82H3.042V49.026H3.132C3.408 48.582 3.798 48.222 4.302 47.946C4.806 47.67 5.346 47.532 5.922 47.532C6.582 47.532 7.158 47.688 7.65 48C8.142 48.3 8.496 48.702 8.712 49.206C9.024 48.702 9.438 48.3 9.954 48C10.482 47.688 11.1 47.532 11.808 47.532C12.864 47.532 13.662 47.856 14.202 48.504C14.754 49.14 15.03 50.01 15.03 51.114V57H13.05V51.456C13.05 50.064 12.456 49.368 11.268 49.368C10.632 49.368 10.11 49.626 9.702 50.142C9.294 50.658 9.09 51.294 9.09 52.05V57H7.11V51.456C7.11 50.064 6.498 49.368 5.274 49.368C4.65 49.368 4.134 49.626 3.726 50.142C3.33 50.658 3.132 51.294 3.132 52.05V57H1.152V47.82ZM20.0808 57.288C19.4208 57.288 18.8328 57.162 18.3168 56.91C17.8008 56.646 17.3988 56.28 17.1108 55.812C16.8228 55.332 16.6788 54.792 16.6788 54.192C16.6788 53.244 17.0328 52.494 17.7408 51.942C18.4608 51.39 19.3668 51.114 20.4588 51.114C20.9988 51.114 21.4848 51.168 21.9168 51.276C22.3488 51.372 22.6908 51.48 22.9428 51.6V51.132C22.9428 50.568 22.7328 50.112 22.3128 49.764C21.8928 49.404 21.3528 49.224 20.6928 49.224C20.2248 49.224 19.7808 49.326 19.3608 49.53C18.9528 49.734 18.6228 50.016 18.3708 50.376L16.9848 49.314C17.3928 48.75 17.9208 48.312 18.5688 48C19.2168 47.688 19.9368 47.532 20.7288 47.532C22.0608 47.532 23.0868 47.862 23.8068 48.522C24.5268 49.17 24.8868 50.088 24.8868 51.276V57H22.9428V55.902H22.8528C22.5888 56.298 22.2168 56.628 21.7368 56.892C21.2568 57.156 20.7048 57.288 20.0808 57.288ZM20.4228 55.65C20.9028 55.65 21.3348 55.536 21.7188 55.308C22.1028 55.08 22.4028 54.774 22.6188 54.39C22.8348 54.006 22.9428 53.592 22.9428 53.148C22.6668 52.992 22.3428 52.866 21.9708 52.77C21.6108 52.674 21.2328 52.626 20.8368 52.626C20.0928 52.626 19.5468 52.776 19.1988 53.076C18.8508 53.364 18.6768 53.742 18.6768 54.21C18.6768 54.63 18.8388 54.978 19.1628 55.254C19.4868 55.518 19.9068 55.65 20.4228 55.65ZM30.3047 57.288C29.2487 57.288 28.3847 57.06 27.7127 56.604C27.0407 56.136 26.5667 55.542 26.2907 54.822L28.0547 54.048C28.2707 54.528 28.5707 54.894 28.9547 55.146C29.3507 55.398 29.8007 55.524 30.3047 55.524C30.7967 55.524 31.2107 55.44 31.5467 55.272C31.8827 55.092 32.0507 54.828 32.0507 54.48C32.0507 54.144 31.9067 53.88 31.6187 53.688C31.3307 53.496 30.8867 53.328 30.2867 53.184L29.1887 52.914C28.4567 52.734 27.8507 52.416 27.3707 51.96C26.8907 51.504 26.6507 50.928 26.6507 50.232C26.6507 49.692 26.8067 49.218 27.1187 48.81C27.4427 48.402 27.8747 48.09 28.4147 47.874C28.9547 47.646 29.5427 47.532 30.1787 47.532C31.0307 47.532 31.7807 47.706 32.4287 48.054C33.0767 48.39 33.5447 48.882 33.8327 49.53L32.1047 50.286C31.7567 49.578 31.1207 49.224 30.1967 49.224C29.7527 49.224 29.3807 49.314 29.0807 49.494C28.7807 49.674 28.6307 49.908 28.6307 50.196C28.6307 50.472 28.7447 50.7 28.9727 50.88C29.2007 51.048 29.5367 51.192 29.9807 51.312L31.3307 51.654C32.2307 51.882 32.9087 52.23 33.3647 52.698C33.8327 53.154 34.0667 53.718 34.0667 54.39C34.0667 54.966 33.8987 55.476 33.5627 55.92C33.2387 56.352 32.7887 56.688 32.2127 56.928C31.6367 57.168 31.0007 57.288 30.3047 57.288ZM39.455 57.144C39.047 57.144 38.663 57.078 38.303 56.946C37.943 56.814 37.649 56.64 37.421 56.424C36.905 55.908 36.647 55.206 36.647 54.318V49.566H35.045V47.82H36.647V45.228H38.627V47.82H40.859V49.566H38.627V53.886C38.627 54.378 38.723 54.726 38.915 54.93C39.095 55.17 39.407 55.29 39.851 55.29C40.055 55.29 40.235 55.266 40.391 55.218C40.547 55.158 40.715 55.068 40.895 54.948V56.874C40.499 57.054 40.019 57.144 39.455 57.144ZM46.5843 57.288C45.6843 57.288 44.8743 57.078 44.1543 56.658C43.4463 56.238 42.8883 55.662 42.4803 54.93C42.0843 54.186 41.8863 53.352 41.8863 52.428C41.8863 51.552 42.0783 50.742 42.4623 49.998C42.8583 49.242 43.4043 48.642 44.1003 48.198C44.7963 47.754 45.5883 47.532 46.4763 47.532C47.4003 47.532 48.1983 47.736 48.8703 48.144C49.5543 48.552 50.0703 49.11 50.4183 49.818C50.7783 50.526 50.9583 51.324 50.9583 52.212C50.9583 52.38 50.9403 52.59 50.9043 52.842H43.8663C43.9383 53.694 44.2383 54.354 44.7663 54.822C45.3063 55.278 45.9303 55.506 46.6383 55.506C47.2023 55.506 47.6883 55.38 48.0963 55.128C48.5163 54.864 48.8523 54.51 49.1043 54.066L50.7783 54.858C50.3463 55.614 49.7823 56.208 49.0863 56.64C48.3903 57.072 47.5563 57.288 46.5843 57.288ZM48.9423 51.33C48.9183 51.006 48.8163 50.688 48.6363 50.376C48.4563 50.052 48.1803 49.782 47.8083 49.566C47.4483 49.35 47.0043 49.242 46.4763 49.242C45.8403 49.242 45.3003 49.434 44.8563 49.818C44.4243 50.19 44.1243 50.694 43.9563 51.33H48.9423ZM52.7614 47.82H54.6514V49.17H54.7414C54.9454 48.702 55.2994 48.318 55.8034 48.018C56.3074 47.706 56.8414 47.55 57.4054 47.55C57.8494 47.55 58.2214 47.61 58.5214 47.73V49.782C57.9934 49.59 57.5194 49.494 57.0994 49.494C56.6434 49.494 56.2354 49.614 55.8754 49.854C55.5274 50.094 55.2514 50.418 55.0474 50.826C54.8434 51.222 54.7414 51.66 54.7414 52.14V57H52.7614V47.82ZM63.7418 57.288C62.8298 57.288 62.0078 57.078 61.2758 56.658C60.5558 56.238 59.9918 55.662 59.5838 54.93C59.1878 54.186 58.9898 53.346 58.9898 52.41C58.9898 51.474 59.1878 50.64 59.5838 49.908C59.9918 49.164 60.5558 48.582 61.2758 48.162C62.0078 47.742 62.8298 47.532 63.7418 47.532C64.7498 47.532 65.6078 47.76 66.3158 48.216C67.0238 48.672 67.5278 49.29 67.8278 50.07L66.0098 50.826C65.6018 49.854 64.8278 49.368 63.6878 49.368C63.1958 49.368 62.7398 49.494 62.3198 49.746C61.9118 49.998 61.5818 50.358 61.3298 50.826C61.0898 51.282 60.9698 51.81 60.9698 52.41C60.9698 53.01 61.0898 53.544 61.3298 54.012C61.5818 54.48 61.9118 54.84 62.3198 55.092C62.7398 55.344 63.1958 55.47 63.6878 55.47C64.2638 55.47 64.7558 55.344 65.1638 55.092C65.5838 54.828 65.9018 54.456 66.1178 53.976L67.8998 54.75C67.5518 55.53 67.0238 56.148 66.3158 56.604C65.6078 57.06 64.7498 57.288 63.7418 57.288ZM72.3758 57.288C71.7158 57.288 71.1278 57.162 70.6118 56.91C70.0958 56.646 69.6938 56.28 69.4058 55.812C69.1178 55.332 68.9738 54.792 68.9738 54.192C68.9738 53.244 69.3278 52.494 70.0358 51.942C70.7558 51.39 71.6618 51.114 72.7538 51.114C73.2938 51.114 73.7798 51.168 74.2118 51.276C74.6438 51.372 74.9858 51.48 75.2378 51.6V51.132C75.2378 50.568 75.0278 50.112 74.6078 49.764C74.1878 49.404 73.6478 49.224 72.9878 49.224C72.5198 49.224 72.0758 49.326 71.6558 49.53C71.2478 49.734 70.9178 50.016 70.6658 50.376L69.2798 49.314C69.6878 48.75 70.2158 48.312 70.8638 48C71.5118 47.688 72.2318 47.532 73.0238 47.532C74.3558 47.532 75.3818 47.862 76.1018 48.522C76.8218 49.17 77.1818 50.088 77.1818 51.276V57H75.2378V55.902H75.1478C74.8838 56.298 74.5118 56.628 74.0318 56.892C73.5518 57.156 72.9998 57.288 72.3758 57.288ZM72.7178 55.65C73.1978 55.65 73.6298 55.536 74.0138 55.308C74.3978 55.08 74.6978 54.774 74.9138 54.39C75.1298 54.006 75.2378 53.592 75.2378 53.148C74.9618 52.992 74.6378 52.866 74.2658 52.77C73.9058 52.674 73.5278 52.626 73.1318 52.626C72.3878 52.626 71.8418 52.776 71.4938 53.076C71.1458 53.364 70.9718 53.742 70.9718 54.21C70.9718 54.63 71.1338 54.978 71.4578 55.254C71.7818 55.518 72.2018 55.65 72.7178 55.65ZM79.3395 47.82H81.2295V49.17H81.3195C81.5235 48.702 81.8775 48.318 82.3815 48.018C82.8855 47.706 83.4195 47.55 83.9835 47.55C84.4275 47.55 84.7995 47.61 85.0995 47.73V49.782C84.5715 49.59 84.0975 49.494 83.6775 49.494C83.2215 49.494 82.8135 49.614 82.4535 49.854C82.1055 50.094 81.8295 50.418 81.6255 50.826C81.4215 51.222 81.3195 51.66 81.3195 52.14V57H79.3395V47.82ZM89.9959 57.288C89.1679 57.288 88.4179 57.078 87.7459 56.658C87.0739 56.238 86.5399 55.662 86.1439 54.93C85.7599 54.186 85.5679 53.346 85.5679 52.41C85.5679 51.474 85.7599 50.64 86.1439 49.908C86.5399 49.164 87.0739 48.582 87.7459 48.162C88.4179 47.742 89.1679 47.532 89.9959 47.532C90.6439 47.532 91.2259 47.676 91.7419 47.964C92.2579 48.252 92.6479 48.606 92.9119 49.026H93.0019L92.9119 47.73V44.112H94.8919V57H93.0019V55.812H92.9119C92.6479 56.22 92.2579 56.568 91.7419 56.856C91.2259 57.144 90.6439 57.288 89.9959 57.288ZM90.2839 55.47C90.7639 55.47 91.2079 55.344 91.6159 55.092C92.0359 54.84 92.3719 54.48 92.6239 54.012C92.8759 53.544 93.0019 53.01 93.0019 52.41C93.0019 51.81 92.8759 51.282 92.6239 50.826C92.3719 50.358 92.0359 49.998 91.6159 49.746C91.2079 49.494 90.7639 49.368 90.2839 49.368C89.8039 49.368 89.3539 49.494 88.9339 49.746C88.5139 49.998 88.1779 50.358 87.9259 50.826C87.6739 51.282 87.5479 51.81 87.5479 52.41C87.5479 53.01 87.6739 53.544 87.9259 54.012C88.1779 54.48 88.5139 54.84 88.9339 55.092C89.3539 55.344 89.8039 55.47 90.2839 55.47Z" fill="white"/>
</svg>

<svg width="97" height="63" fill="none" xmlns="http://www.w3.org/2000/svg"><circle cx="36" cy="20" r="20" fill="#EB001B" fill-opacity=".75"/><circle cx="63" cy="20" r="20" fill="#F79E1B" fill-opacity=".75"/><path d="M1.152 47.82h1.89v1.206h.09a3.09 3.09 0 011.17-1.08 3.32 3.32 0 011.62-.414c.66 0 1.236.156 1.728.468.492.3.846.702 1.062 1.206A3.517 3.517 0 019.954 48c.528-.312 1.146-.468 1.854-.468 1.056 0 1.854.324 2.394.972.552.636.828 1.506.828 2.61V57h-1.98v-5.544c0-1.392-.594-2.088-1.782-2.088-.636 0-1.158.258-1.566.774-.408.516-.612 1.152-.612 1.908V57H7.11v-5.544c0-1.392-.612-2.088-1.836-2.088-.624 0-1.14.258-1.548.774-.396.516-.594 1.152-.594 1.908V57h-1.98v-9.18zm18.929 9.468c-.66 0-1.248-.126-1.764-.378a2.97 2.97 0 01-1.206-1.098 3.087 3.087 0 01-.432-1.62c0-.948.354-1.698 1.062-2.25.72-.552 1.626-.828 2.718-.828.54 0 1.026.054 1.458.162.432.096.774.204 1.026.324v-.468c0-.564-.21-1.02-.63-1.368-.42-.36-.96-.54-1.62-.54a3.01 3.01 0 00-1.332.306 2.611 2.611 0 00-.99.846l-1.386-1.062A4.131 4.131 0 0118.569 48c.648-.312 1.368-.468 2.16-.468 1.332 0 2.358.33 3.078.99.72.648 1.08 1.566 1.08 2.754V57h-1.944v-1.098h-.09c-.264.396-.636.726-1.116.99-.48.264-1.032.396-1.656.396zm.342-1.638c.48 0 .912-.114 1.296-.342a2.492 2.492 0 001.224-2.16 4.004 4.004 0 00-.972-.378 4.383 4.383 0 00-1.134-.144c-.744 0-1.29.15-1.638.45-.348.288-.522.666-.522 1.134 0 .42.162.768.486 1.044.324.264.744.396 1.26.396zm9.882 1.638c-1.056 0-1.92-.228-2.592-.684-.672-.468-1.146-1.062-1.422-1.782l1.764-.774c.216.48.516.846.9 1.098a2.46 2.46 0 001.35.378c.492 0 .906-.084 1.242-.252.336-.18.504-.444.504-.792 0-.336-.144-.6-.432-.792-.288-.192-.732-.36-1.332-.504l-1.098-.27c-.732-.18-1.338-.498-1.818-.954-.48-.456-.72-1.032-.72-1.728 0-.54.156-1.014.468-1.422.324-.408.756-.72 1.296-.936a4.489 4.489 0 011.764-.342c.852 0 1.602.174 2.25.522a2.996 2.996 0 011.404 1.476l-1.728.756c-.348-.708-.984-1.062-1.908-1.062-.444 0-.816.09-1.116.27-.3.18-.45.414-.45.702 0 .276.114.504.342.684.228.168.564.312 1.008.432l1.35.342c.9.228 1.578.576 2.034 1.044.468.456.702 1.02.702 1.692 0 .576-.168 1.086-.504 1.53-.324.432-.774.768-1.35 1.008-.576.24-1.212.36-1.908.36zm9.15-.144a3.32 3.32 0 01-1.152-.198 2.53 2.53 0 01-.882-.522c-.516-.516-.774-1.218-.774-2.106v-4.752h-1.602V47.82h1.602v-2.592h1.98v2.592h2.232v1.746h-2.232v4.32c0 .492.096.84.288 1.044.18.24.492.36.936.36.204 0 .384-.024.54-.072.156-.06.324-.15.504-.27v1.926c-.396.18-.876.27-1.44.27zm7.13.144c-.9 0-1.71-.21-2.43-.63a4.541 4.541 0 01-1.675-1.728c-.396-.744-.594-1.578-.594-2.502 0-.876.192-1.686.576-2.43a4.652 4.652 0 011.638-1.8c.696-.444 1.488-.666 2.376-.666.924 0 1.722.204 2.394.612.684.408 1.2.966 1.548 1.674.36.708.54 1.506.54 2.394a4.6 4.6 0 01-.054.63h-7.038c.072.852.372 1.512.9 1.98.54.456 1.164.684 1.872.684.564 0 1.05-.126 1.458-.378.42-.264.756-.618 1.008-1.062l1.674.792a4.932 4.932 0 01-1.692 1.782c-.696.432-1.53.648-2.502.648zm2.357-5.958a2.225 2.225 0 00-.306-.954c-.18-.324-.456-.594-.828-.81-.36-.216-.804-.324-1.332-.324-.636 0-1.176.192-1.62.576-.432.372-.732.876-.9 1.512h4.986zm3.82-3.51h1.89v1.35h.09c.203-.468.557-.852 1.061-1.152a2.994 2.994 0 011.602-.468c.444 0 .816.06 1.116.18v2.052c-.528-.192-1.002-.288-1.422-.288-.456 0-.864.12-1.224.36-.348.24-.624.564-.828.972a2.826 2.826 0 00-.306 1.314V57h-1.98v-9.18zm10.98 9.468c-.912 0-1.734-.21-2.466-.63a4.502 4.502 0 01-1.692-1.728c-.396-.744-.594-1.584-.594-2.52 0-.936.198-1.77.594-2.502a4.468 4.468 0 011.692-1.746c.732-.42 1.554-.63 2.466-.63 1.008 0 1.866.228 2.574.684a3.76 3.76 0 011.512 1.854l-1.818.756c-.408-.972-1.182-1.458-2.322-1.458-.492 0-.948.126-1.368.378a2.789 2.789 0 00-.99 1.08c-.24.456-.36.984-.36 1.584 0 .6.12 1.134.36 1.602.252.468.582.828.99 1.08.42.252.876.378 1.368.378.576 0 1.068-.126 1.476-.378.42-.264.738-.636.954-1.116l1.782.774a4.185 4.185 0 01-1.584 1.854c-.708.456-1.566.684-2.574.684zm8.634 0c-.66 0-1.248-.126-1.764-.378a2.97 2.97 0 01-1.206-1.098 3.087 3.087 0 01-.432-1.62c0-.948.354-1.698 1.062-2.25.72-.552 1.626-.828 2.718-.828.54 0 1.026.054 1.458.162.432.096.774.204 1.026.324v-.468c0-.564-.21-1.02-.63-1.368-.42-.36-.96-.54-1.62-.54a3.01 3.01 0 00-1.332.306 2.611 2.611 0 00-.99.846l-1.386-1.062A4.131 4.131 0 0170.864 48c.648-.312 1.368-.468 2.16-.468 1.332 0 2.358.33 3.078.99.72.648 1.08 1.566 1.08 2.754V57h-1.944v-1.098h-.09c-.264.396-.636.726-1.116.99-.48.264-1.032.396-1.656.396zm.342-1.638c.48 0 .912-.114 1.296-.342a2.492 2.492 0 001.224-2.16 4.004 4.004 0 00-.972-.378 4.383 4.383 0 00-1.134-.144c-.744 0-1.29.15-1.638.45-.348.288-.522.666-.522 1.134 0 .42.162.768.486 1.044.324.264.744.396 1.26.396zm6.621-7.83h1.89v1.35h.09c.204-.468.558-.852 1.063-1.152a2.994 2.994 0 011.602-.468c.444 0 .816.06 1.116.18v2.052c-.528-.192-1.002-.288-1.422-.288-.456 0-.864.12-1.224.36-.348.24-.624.564-.828.972a2.826 2.826 0 00-.306 1.314V57h-1.98v-9.18zm10.657 9.468c-.828 0-1.578-.21-2.25-.63a4.542 4.542 0 01-1.602-1.728c-.384-.744-.576-1.584-.576-2.52 0-.936.192-1.77.576-2.502a4.509 4.509 0 011.602-1.746 4.159 4.159 0 012.25-.63c.648 0 1.23.144 1.746.432.516.288.906.642 1.17 1.062h.09l-.09-1.296v-3.618h1.98V57h-1.89v-1.188h-.09c-.264.408-.654.756-1.17 1.044a3.52 3.52 0 01-1.746.432zm.288-1.818c.48 0 .924-.126 1.332-.378.42-.252.756-.612 1.008-1.08.252-.468.378-1.002.378-1.602 0-.6-.126-1.128-.378-1.584a2.742 2.742 0 00-1.008-1.08 2.487 2.487 0 00-1.332-.378c-.48 0-.93.126-1.35.378-.42.252-.756.612-1.008 1.08-.252.456-.378.984-.378 1.584 0 .6.126 1.134.378 1.602.252.468.588.828 1.008 1.08.42.252.87.378 1.35.378z" fill="#fff"/></svg>
